!! 00000] TT[00
!! NN
!!!OTL: Shuang dai honghua shang Beijing
!!!ARE: Asia, China,ˇnan Anhui, Lujiang, SÅden)
!! Ethnic Group: Han
!! III, 537
!!!SCT: C0339
!!!YEM: Copyright 1995, estate of Helmut Schaffrath.
**kern
*ICvox
*Ivox
*M2/4
*k[f#c#]
*D:
{8B
8d
8A
8F#
=1
4.A
8B
=2
8d
8e
8f#
8a
=3
4.a
8dd
=4
8b
8dd
8b
8a
=5
16f#
16a
8f#
[4e
=6
2e]}
=7
{8e
16f#
16a
16f#
16e
16e
16B
=8
16B
16d
8B
[4A
=9
2A]}
=10
{16B
16d
16e
16f#
8a
16a
16f#
=11
16b
16a
16f#
16e
16d
8.B}
=12
{16F#
16A
16B
[16d
4d]
=13
8f#
16e
16d
16A
16B
16B
[16A
=14
2A]}
==
!!!AGN: Shange, MengjiangnÅ diao. Xin minge
!! neuer Text, aber vom Laien- Volkssaenger geschrieben.
!!    Vereinzelt Glissandi.
!!!ONB: ESAC (Essen Associative Code) Database: CHINA
!!!AMT: simple duple
!!!AIN: vox
!!!EED: Helmut Schaffrath
!!!EEV: 1.0
*-
!!!ONB: Tied note syntax fixed by Craig Sapp, 2004/05/03/
